svg/fluentui-system-icons/ic_fluent_align_top_48_regular.svg

<svg width="48" height="48" viewBox="0 0 48 48" fill="none" xmlns="http://www.w3.org/2000/svg">
<path d="M5.25 6.5C4.55964 6.5 4 7.05964 4 7.75C4 8.44036 4.55964 9 5.25 9H42.75C43.4404 9 44 8.44036 44 7.75C44 7.05964 43.4404 6.5 42.75 6.5H5.25ZM26 15.75C26 13.4028 27.9028 11.5 30.25 11.5L35.75 11.5C38.0972 11.5 40 13.4028 40 15.75V30.75C40 33.0972 38.0972 35 35.75 35H30.25C27.9028 35 26 33.0972 26 30.75L26 15.75ZM30.25 14C29.2835 14 28.5 14.7835 28.5 15.75L28.5 30.75C28.5 31.7165 29.2835 32.5 30.25 32.5H35.75C36.7165 32.5 37.5 31.7165 37.5 30.75V15.75C37.5 14.7835 36.7165 14 35.75 14L30.25 14ZM12.25 11.5H17.75C20.0972 11.5 22 13.4028 22 15.75V38C22 40.3472 20.0972 42.25 17.75 42.25H12.25C9.90279 42.25 8 40.3472 8 38L8 15.75C8 13.4028 9.90279 11.5 12.25 11.5ZM17.75 14H12.25C11.2835 14 10.5 14.7835 10.5 15.75L10.5 38C10.5 38.9665 11.2835 39.75 12.25 39.75H17.75C18.7165 39.75 19.5 38.9665 19.5 38V15.75C19.5 14.7835 18.7165 14 17.75 14Z" fill="#212121"/>
</svg>

<svg xmlns="http://www.w3.org/2000/svg" width="48" height="48"><path d="M5.25 6.5a1.25 1.25 0 1 0 0 2.5h37.5a1.25 1.25 0 1 0 0-2.5H5.25ZM26 15.75a4.25 4.25 0 0 1 4.25-4.25h5.5A4.25 4.25 0 0 1 40 15.75v15A4.25 4.25 0 0 1 35.75 35h-5.5A4.25 4.25 0 0 1 26 30.75v-15ZM30.25 14a1.75 1.75 0 0 0-1.75 1.75v15c0 .966.784 1.75 1.75 1.75h5.5a1.75 1.75 0 0 0 1.75-1.75v-15A1.75 1.75 0 0 0 35.75 14h-5.5Zm-18-2.5h5.5A4.25 4.25 0 0 1 22 15.75V38a4.25 4.25 0 0 1-4.25 4.25h-5.5A4.25 4.25 0 0 1 8 38V15.75a4.25 4.25 0 0 1 4.25-4.25Zm5.5 2.5h-5.5a1.75 1.75 0 0 0-1.75 1.75V38c0 .967.784 1.75 1.75 1.75h5.5A1.75 1.75 0 0 0 19.5 38V15.75A1.75 1.75 0 0 0 17.75 14Z"/></svg>
